static/app-icons/dark-theme/010.svg

<svg xmlns="http://www.w3.org/2000/svg" viewBox="0 0 32 32"><defs><linearGradient id="a" x1="4.618" y1="18.089" x2="11.083" y2="6.893" gradientUnits="userSpaceOnUse"><stop offset=".2" stop-opacity="0"/><stop offset=".9"/></linearGradient><linearGradient id="c" x1="-2933" y1="911" x2="-2901" y2="879" gradientTransform="matrix(1 0 0 -1 2933 911)" gradientUnits="userSpaceOnUse"><stop offset=".1" stop-color="#be95ff"/><stop offset=".9" stop-color="#4589ff"/></linearGradient><mask id="b" x="0" y="0" width="32" height="32" maskUnits="userSpaceOnUse"><path d="M29.878 15.521l-6-11A1 1 0 0023 4H9v2h13.406l5.455 10-5.455 10H9.594L4.139 16l4.938-9.052-1.733-1-5.222 9.573a1 1 0 000 .958l6 11A1 1 0 009 28h14a1 1 0 00.878-.521l6-11a1 1 0 000-.958z" fill="#fff"/><path fill="url(#a)" d="M13 8L6 5 1 16h11l1-8z"/></mask></defs><g data-name="Layer 2"><g data-name="Dark theme icons"><g mask="url(#b)"><path transform="rotate(-90 16 16)" fill="url(#c)" d="M0 0h32v32H0z"/></g><path d="M20 12v8h-8v-8h8m0-2h-8a2 2 0 00-2 2v8a2 2 0 002 2h8a2 2 0 002-2v-8a2 2 0 00-2-2z" fill="#f4f4f4"/></g></g></svg>

<svg xmlns="http://www.w3.org/2000/svg" xmlns:xlink="http://www.w3.org/1999/xlink" viewBox="0 0 32 32"><defs><style>.cls-1{fill:#fff;}.cls-2{fill:url(#linear-gradient);}.cls-3{mask:url(#mask);}.cls-4{fill:url(#linear-gradient-2);}.cls-5{fill:#f4f4f4;}</style><linearGradient id="linear-gradient" x1="4.618" y1="18.089" x2="11.083" y2="6.893" gradientUnits="userSpaceOnUse"><stop offset="0.2" stop-opacity="0"/><stop offset="0.9"/></linearGradient><mask id="mask" x="0" y="0" width="32" height="32" maskUnits="userSpaceOnUse"><path id="GradientStroke" class="cls-1" d="M29.878,15.521l-6-11A1,1,0,0,0,23,4H9V6H22.406l5.455,10L22.406,26H9.594L4.139,16,9.077,6.948l-1.733-1L2.122,15.521a1,1,0,0,0,0,.958l6,11A1,1,0,0,0,9,28H23a1,1,0,0,0,.878-.521l6-11A1,1,0,0,0,29.878,15.521Z"/><polygon class="cls-2" points="13 8 6 5 1 16 12 16 13 8"/></mask><linearGradient id="linear-gradient-2" x1="-2933" y1="911" x2="-2901" y2="879" gradientTransform="matrix(1, 0, 0, -1, 2933, 911)" gradientUnits="userSpaceOnUse"><stop offset="0.1" stop-color="#be95ff"/><stop offset="0.9" stop-color="#4589ff"/></linearGradient></defs><g id="Layer_2" data-name="Layer 2"><g id="Dark_theme_icons" data-name="Dark theme icons"><g class="cls-3"><rect id="Color" class="cls-4" width="32" height="32" transform="translate(0 32) rotate(-90)"/></g><path class="cls-5" d="M20,12v8H12V12h8m0-2H12a2,2,0,0,0-2,2v8a2,2,0,0,0,2,2h8a2,2,0,0,0,2-2V12a2,2,0,0,0-2-2Z"/></g></g></svg>
